X:1
T:Sallys födelsedagspolska
R:Polska
C:Bruce Sagan
Z:ABC-transkribering av Bruce Sagan
M:3/4
L:1/8
K:D
A | d>A FD FA | B>A GA/B/ A2 | e>f gf/e/ fe/d/ | c/d/e/f/ e/d/c/B/ A/B/c/A/ |
d>A FD FA | B>A GA/B/ A2 | e>f gf/e/ fe/d/ | c/d/e/c/ d3 :|
|: g | fd A/d/f/d/ A/d/f/d/ | e>d c/d/c/B/ Ac | dB F/B/d/B/ F/B/d/B/ |\
 c>B ^A/B/A/^G/ FF |
GD B,/D/G/B/ dB | AF D/F/A/d/ fd | e>f gf/e/ fe/d/ | c/d/e/c/ d3 :|

